src/images/icons/viber-icon.svg

<svg width="35" height="36" viewBox="0 0 35 36" fill="none" xmlns="http://www.w3.org/2000/svg">
<g id="viber" clip-path="url(#clip0_1185_3947)">
<path id="Vector" d="M17.5 35.5001C27.165 35.5001 35 27.665 35 18.0001C35 8.33508 27.165 0.500061 17.5 0.500061C7.83502 0.500061 0 8.33508 0 18.0001C0 27.665 7.83502 35.5001 17.5 35.5001Z" fill="#6F3FAA"/>
<g id="Group">
<path id="Vector_2" d="M26.7573 12.7996L26.7516 12.7765C26.284 10.8861 24.1759 8.85776 22.24 8.43578L22.2182 8.43127C19.0869 7.83395 15.912 7.83395 12.7814 8.43127L12.7589 8.43578C10.8237 8.85776 8.71552 10.8863 8.24732 12.7765L8.24213 12.7996C7.66408 15.4394 7.66408 18.1166 8.24213 20.7565L8.24732 20.7796C8.69563 22.5892 10.6467 24.5244 12.5104 25.0566V27.1667C12.5104 27.9305 13.4411 28.3056 13.9703 27.7544L16.1082 25.5321C16.572 25.558 17.0359 25.5725 17.4998 25.5725C19.0759 25.5725 20.6528 25.4234 22.2181 25.1248L22.2399 25.1203C24.1759 24.6983 26.2839 22.6698 26.7515 20.7796L26.7573 20.7565C27.3353 18.1166 27.3353 15.4395 26.7573 12.7996ZM25.0654 20.3737C24.7532 21.607 23.1526 23.1402 21.8809 23.4234C20.216 23.7401 18.5378 23.8754 16.8614 23.8289C16.828 23.828 16.7959 23.841 16.7728 23.8649C16.5348 24.1091 15.2118 25.4674 15.2118 25.4674L13.5515 27.1714C13.4301 27.298 13.2168 27.2118 13.2168 27.0372V23.5416C13.2168 23.4838 13.1756 23.4348 13.1188 23.4236C13.1185 23.4234 13.1182 23.4234 13.1179 23.4234C11.8461 23.1401 10.2461 21.6069 9.93334 20.3737C9.41306 17.9875 9.41306 15.5685 9.93334 13.1824C10.2461 11.9491 11.8461 10.4159 13.1179 10.1327C16.0256 9.57964 18.9738 9.57964 21.8809 10.1327C23.1533 10.4159 24.7532 11.9491 25.0654 13.1824C25.5863 15.5686 25.5863 17.9876 25.0654 20.3737Z" fill="white"/>
<path id="Vector_3" d="M20.2662 21.9873C20.0707 21.9279 19.8844 21.888 19.7113 21.8163C17.9181 21.0724 16.2679 20.1126 14.9608 18.6414C14.2175 17.8048 13.6357 16.8603 13.1439 15.8608C12.9107 15.3868 12.7141 14.8942 12.5138 14.4048C12.3311 13.9585 12.6002 13.4975 12.8835 13.1612C13.1493 12.8456 13.4915 12.6041 13.862 12.4261C14.1511 12.2872 14.4363 12.3673 14.6475 12.6123C15.1041 13.1423 15.5235 13.6993 15.863 14.3135C16.0718 14.6914 16.0145 15.1532 15.636 15.4103C15.544 15.4728 15.4602 15.5462 15.3746 15.6167C15.2994 15.6786 15.2287 15.7411 15.1771 15.8248C15.083 15.978 15.0785 16.1588 15.1391 16.3254C15.6057 17.6079 16.3924 18.6053 17.6833 19.1425C17.8899 19.2284 18.0973 19.3284 18.3353 19.3008C18.7339 19.2542 18.8629 18.817 19.1422 18.5886C19.4152 18.3654 19.7641 18.3625 20.0581 18.5485C20.3523 18.7347 20.6373 18.9345 20.9208 19.1365C21.199 19.3347 21.4759 19.5285 21.7325 19.7546C21.9792 19.9719 22.0642 20.257 21.9252 20.5518C21.6709 21.0919 21.3008 21.5411 20.7669 21.8279C20.6162 21.9087 20.4362 21.9349 20.2662 21.9873C20.4362 21.9349 20.0707 21.9279 20.2662 21.9873Z" fill="white"/>
<path id="Vector_4" d="M17.5047 11.8085C19.85 11.8742 21.7765 13.4307 22.1893 15.7495C22.2596 16.1446 22.2847 16.5485 22.316 16.9495C22.3292 17.1182 22.2336 17.2784 22.0516 17.2806C21.8636 17.2829 21.7791 17.1255 21.7668 16.957C21.7426 16.6233 21.7259 16.288 21.6799 15.9571C21.4371 14.2099 20.044 12.7645 18.3049 12.4543C18.0432 12.4077 17.7755 12.3954 17.5103 12.3676C17.3428 12.35 17.1233 12.3399 17.0862 12.1315C17.0551 11.9569 17.2025 11.8178 17.3688 11.8089C17.4139 11.8062 17.4593 11.8083 17.5047 11.8085C19.8502 11.8742 17.4593 11.8083 17.5047 11.8085Z" fill="white"/>
<path id="Vector_5" d="M21.069 16.4291C21.0651 16.4584 21.0631 16.5273 21.0459 16.5921C20.9837 16.8275 20.6266 16.857 20.5445 16.6194C20.5201 16.5489 20.5165 16.4687 20.5163 16.3928C20.5155 15.8961 20.4076 15.3998 20.157 14.9676C19.8995 14.5233 19.5061 14.15 19.0447 13.9239C18.7657 13.7873 18.464 13.7024 18.1581 13.6519C18.0245 13.6297 17.8894 13.6164 17.7551 13.5976C17.5923 13.575 17.5054 13.4713 17.5132 13.3109C17.5204 13.1607 17.6302 13.0525 17.794 13.0618C18.3322 13.0923 18.8521 13.2088 19.3307 13.4622C20.3037 13.9775 20.8596 14.7909 21.0219 15.877C21.0292 15.9263 21.041 15.975 21.0448 16.0243C21.0539 16.1462 21.0597 16.2682 21.069 16.4291C21.0651 16.4583 21.0597 16.2682 21.069 16.4291Z" fill="white"/>
<path id="Vector_6" d="M19.6104 16.3723C19.4142 16.3759 19.3092 16.2672 19.2889 16.0874C19.2748 15.962 19.2636 15.8349 19.2337 15.7128C19.1748 15.4723 19.047 15.2496 18.8448 15.1023C18.7494 15.0328 18.6412 14.9821 18.5279 14.9493C18.384 14.9077 18.2344 14.9192 18.0909 14.884C17.935 14.8458 17.8487 14.7195 17.8733 14.5733C17.8956 14.4401 18.025 14.3362 18.1706 14.3468C19.0799 14.4124 19.7298 14.8825 19.8225 15.9531C19.8292 16.0286 19.8368 16.1084 19.8201 16.1808C19.7912 16.3043 19.6996 16.3663 19.6104 16.3723C19.6996 16.3663 19.4141 16.3758 19.6104 16.3723Z" fill="white"/>
</g>
<path id="Vector_7" d="M20.2663 21.9873C20.0708 21.9279 20.4362 21.9349 20.2663 21.9873V21.9873Z" fill="white"/>
<g id="Group_2">
<path id="Vector_8" d="M17.5108 11.81C17.5087 11.81 17.5067 11.8098 17.5046 11.8098C17.5026 11.8096 17.5052 11.8098 17.5108 11.81Z" fill="white"/>
<path id="Vector_9" d="M17.5059 11.8085C17.5078 11.8085 17.5098 11.8087 17.5117 11.8087C17.6419 11.8133 19.7588 11.8716 17.5059 11.8085Z" fill="white"/>
</g>
<g id="Group_3">
<path id="Vector_10" d="M20.8687 13.2037L20.4561 13.5695C21.1046 14.2005 21.5518 15.0367 21.6796 15.957C21.7256 16.288 21.7424 16.6231 21.7666 16.9569C21.7788 17.1255 21.8633 17.2828 22.0514 17.2806C22.2335 17.2784 22.329 17.1182 22.3158 16.9495C22.2844 16.5485 22.2594 16.1445 22.1891 15.7494C22.0084 14.7344 21.5376 13.8655 20.8687 13.2037Z" fill="#D1D1D1"/>
<path id="Vector_11" d="M21.0216 15.8767C20.9034 15.0852 20.5751 14.4394 20.0297 13.9473L19.6182 14.312C19.831 14.5009 20.0151 14.7227 20.1568 14.9674C20.4074 15.3996 20.5153 15.8959 20.5161 16.3926C20.5163 16.4685 20.5199 16.5487 20.5443 16.6194C20.6265 16.857 20.9835 16.8276 21.0457 16.592C21.0629 16.5271 21.0649 16.4582 21.0688 16.429C21.0594 16.2682 21.0649 16.4584 21.0688 16.429C21.0594 16.2682 21.0536 16.1461 21.0444 16.0242C21.0408 15.9746 21.029 15.9259 21.0216 15.8767Z" fill="#D1D1D1"/>
</g>
<g id="Group_4">
<path id="Vector_12" d="M21.0696 16.4291C21.0603 16.2682 21.0657 16.4583 21.0696 16.4291V16.4291Z" fill="white"/>
<path id="Vector_13" d="M19.6108 16.3724C19.6139 16.3722 19.617 16.3705 19.62 16.3702C19.6115 16.3702 19.5984 16.3704 19.585 16.3709C19.5937 16.3711 19.6016 16.3724 19.6108 16.3724Z" fill="white"/>
<path id="Vector_14" d="M19.6105 16.3723C19.6017 16.3724 19.5939 16.3711 19.5854 16.3708C19.5429 16.372 19.4991 16.3743 19.6105 16.3723Z" fill="white"/>
<path id="Vector_15" d="M19.6196 16.3702C19.6164 16.3705 19.6134 16.3721 19.6104 16.3724C19.634 16.3707 19.6319 16.3702 19.6196 16.3702Z" fill="white"/>
</g>
<path id="Vector_16" d="M19.1963 14.6863L18.7773 15.0577C18.8004 15.0717 18.8231 15.0863 18.845 15.1022C19.0472 15.2496 19.175 15.4723 19.2339 15.7127C19.2639 15.8348 19.2749 15.9618 19.2891 16.0873C19.3084 16.2591 19.406 16.3647 19.5855 16.3709C19.5985 16.3705 19.6114 16.3702 19.6195 16.3702C19.7059 16.3606 19.7926 16.3 19.8202 16.1805C19.837 16.1083 19.8293 16.0284 19.8227 15.9528C19.7706 15.3543 19.5443 14.9437 19.1963 14.6863Z" fill="#D1D1D1"/>
</g>
<defs>
<clipPath id="clip0_1185_3947">
<rect width="35" height="35" fill="white" transform="translate(0 0.500061)"/>
</clipPath>
</defs>
</svg>

<svg width="35" height="36" fill="none" xmlns="http://www.w3.org/2000/svg"><g clip-path="url(#a)"><path d="M17.5 35.5C27.165 35.5 35 27.665 35 18S27.165.5 17.5.5 0 8.335 0 18s7.835 17.5 17.5 17.5Z" fill="#6F3FAA"/><g fill="#fff"><path d="m26.757 12.8-.005-.024c-.468-1.89-2.576-3.918-4.512-4.34l-.022-.005a25.072 25.072 0 0 0-9.437 0l-.022.005c-1.935.422-4.043 2.45-4.512 4.34l-.005.024a18.471 18.471 0 0 0 0 7.956l.005.024c.449 1.81 2.4 3.744 4.263 4.277v2.11c0 .763.931 1.139 1.46.587l2.138-2.222a25.158 25.158 0 0 0 6.11-.407l.022-.005c1.936-.422 4.044-2.45 4.512-4.34l.005-.024c.578-2.64.578-5.316 0-7.956Zm-1.692 7.574c-.312 1.233-1.912 2.766-3.184 3.05a23.359 23.359 0 0 1-5.02.405.119.119 0 0 0-.088.036l-1.561 1.602-1.66 1.704a.194.194 0 0 1-.335-.134v-3.495a.12.12 0 0 0-.098-.118h-.001c-1.272-.284-2.872-1.817-3.185-3.05a16.761 16.761 0 0 1 0-7.192c.313-1.233 1.913-2.766 3.185-3.05a23.348 23.348 0 0 1 8.763 0c1.272.284 2.872 1.817 3.184 3.05.521 2.387.521 4.806 0 7.192Z"/><path d="M20.266 21.987c-.195-.06-.382-.099-.555-.17-1.793-.745-3.443-1.704-4.75-3.176-.744-.836-1.325-1.78-1.817-2.78-.233-.474-.43-.967-.63-1.456-.183-.446.086-.907.37-1.244a2.92 2.92 0 0 1 .978-.735c.29-.139.574-.059.786.186.456.53.876 1.087 1.215 1.701.209.378.152.84-.227 1.097-.092.063-.176.136-.261.207a.86.86 0 0 0-.198.208.57.57 0 0 0-.038.5c.467 1.283 1.253 2.28 2.544 2.817.207.086.414.186.652.159.399-.047.528-.484.807-.712.273-.224.622-.226.916-.04.294.186.58.386.863.588.278.198.555.392.812.618.246.217.331.502.192.797-.254.54-.624.99-1.158 1.276-.15.08-.33.107-.5.16.17-.053-.196-.06 0 0ZM17.505 11.809c2.345.065 4.271 1.622 4.684 3.94.07.396.096.8.127 1.2.013.17-.082.33-.264.332-.188.002-.273-.155-.285-.324-.024-.334-.041-.669-.087-1-.243-1.747-1.636-3.193-3.375-3.503-.262-.046-.53-.059-.795-.086-.167-.018-.387-.028-.424-.236-.03-.175.117-.314.283-.323.045-.003.09 0 .136 0 2.345.065-.046 0 0 0Z"/><path d="M21.069 16.43c-.004.028-.006.097-.023.162-.062.236-.42.265-.502.027a.709.709 0 0 1-.028-.226 2.84 2.84 0 0 0-.359-1.425 2.653 2.653 0 0 0-1.112-1.044 3.195 3.195 0 0 0-.887-.272c-.134-.022-.269-.036-.403-.054-.163-.023-.25-.127-.242-.287.007-.15.117-.258.281-.25.538.031 1.058.148 1.537.401.973.515 1.529 1.329 1.69 2.415.008.05.02.098.024.147.009.122.015.244.024.405-.004.03-.01-.16 0 0Z"/><path d="M19.61 16.372c-.196.004-.3-.105-.321-.285-.014-.125-.025-.252-.055-.374a1.054 1.054 0 0 0-.39-.61 1.019 1.019 0 0 0-.316-.154c-.144-.041-.294-.03-.437-.065-.156-.038-.242-.165-.218-.31a.282.282 0 0 1 .298-.227c.909.065 1.559.536 1.652 1.606.006.076.014.155-.003.228-.029.123-.12.185-.21.191.09-.006-.196.004 0 0Z"/></g><path d="M20.266 21.987c-.195-.06.17-.052 0 0Z" fill="#fff"/><g fill="#fff"><path d="M17.51 11.81h-.005.006ZM17.506 11.809h.006c.13.004 2.247.063-.006 0Z"/></g><g fill="#D1D1D1"><path d="m20.869 13.204-.413.365a4.141 4.141 0 0 1 1.224 2.388c.046.331.062.666.087 1 .012.168.096.326.284.324.183-.003.278-.163.265-.331-.032-.401-.057-.805-.127-1.2a4.709 4.709 0 0 0-1.32-2.546ZM21.022 15.877c-.119-.792-.447-1.438-.992-1.93l-.412.365c.213.189.397.41.539.655.25.433.358.929.36 1.426a.71.71 0 0 0 .027.226c.082.238.44.209.502-.027.017-.065.019-.134.023-.163-.01-.16-.004.03 0 0-.01-.16-.015-.283-.025-.405-.003-.05-.015-.098-.022-.147Z"/></g><g fill="#fff"><path d="M21.07 16.43c-.01-.162-.004.028 0 0ZM19.61 16.372l.01-.002h-.035l.026.002ZM19.61 16.372l-.025-.001a.342.342 0 0 0 .025.001Z"/><path d="m19.62 16.37-.01.002c.024-.001.022-.002.01-.002Z"/></g><path d="m19.196 14.686-.419.372a.974.974 0 0 1 .068.044c.202.148.33.37.389.61.03.123.04.25.055.375.02.172.117.278.296.284h.034a.233.233 0 0 0 .201-.19c.017-.073.01-.153.003-.228-.052-.599-.279-1.01-.627-1.267Z" fill="#D1D1D1"/></g><defs><clipPath id="a"><path fill="#fff" transform="translate(0 .5)" d="M0 0h35v35H0z"/></clipPath></defs></svg>
